docs/img/left-to-right.svg

<svg viewBox="0 0 256 256" xmlns="http://www.w3.org/2000/svg">
    <g fill="none" fill-rule="evenodd" stroke-linejoin="round">
        <path
            d="m160 204.8 32 25.6-32 25.6-32-25.6 32-25.6Zm64 0 32 25.6-32 25.6-32-25.6 32-25.6ZM96 0l32 25.6-31.875 25.5L128 76.6l-31.877 25.5L128 127.6l-31.876 25.5L128 178.6l-31.875 25.5L128 229.6l-32 25.6-32-25.6 31.875-25.5L64 178.6l-31.875 25.5L64 229.6l-32 25.6-32-25.6 31.875-25.5L0 178.6l31.875-25.5L0 127.6l31.876-25.5L0 76.6l31.874-25.5L0 25.6 32 0l32 25.6L96 0Zm64 102.4 32 25.6-31.999 25.6L192 179.2l-32 25.6-32-25.6 31.999-25.6L128 128l32-25.6Zm64 0 32 25.6-31.999 25.6L256 179.2l-32 25.6-32-25.6 31.999-25.6L192 128l32-25.6ZM64 127.6l-31.875 25.5L64 178.6l31.874-25.5L64 127.6Zm0-51-31.876 25.5L64 127.6l31.875-25.5L64 76.6Zm96-25.4 32 25.6-32 25.6-32-25.6 32-25.6Zm64 0 32 25.6-32 25.6-32-25.6 32-25.6ZM64 25.6 32.126 51.1 64 76.6l31.873-25.5L64 25.6ZM160 0l32 25.6-32 25.6-32-25.6L160 0Zm64 0 32 25.6-32 25.6-32-25.6L224 0Z"
            stroke="#32C5FF66" stroke-width="5" />
        <path
            d="m134.143786 32.1515554-12.236366 9.8570723c-.430094.3464645-.497889.9759895-.151424 1.4060834a.99998162.99998162 0 0 0 .157424.1562196l48.4162074 38.3910278L70.307627 161.275959l-48.599516-38.536995c-.366201-.290386-.884699-.288395-1.248659.004795l-12.236366 9.857073c-.430094.346464-.497889.975989-.151425 1.406083a1.0001079 1.0001079 0 0 0 .157424.15622l112.077725 88.874132c.366201.290387.884699.288395 1.248659-.004795l12.236366-9.857072c.430094-.346465.497889-.97599.151424-1.406084a.99997353.99997353 0 0 0-.157424-.156219l-49.535208-39.280138 100.0210004-79.3140005 49.7195165 39.4261045c.3662013.290387.8846992.288395 1.2486594-.004795l12.23636569-9.857072c.43009391-.346465.49788891-.97599.15142437-1.406083-.04652006-.05775-.09931936-.110145-.15742399-.15622L135.392445 32.1467602c-.366201-.2903862-.884699-.288395-1.248659.0047952Z"
            stroke="#222" fill="#222" />
    </g>
</svg>

<?xml version="1.0" encoding="UTF-8"?>
<svg viewBox="0 0 256 256" version="1.1" xmlns="http://www.w3.org/2000/svg" xmlns:xlink="http://www.w3.org/1999/xlink">
    <title>left-to-right</title>
    <g id="left-to-right" stroke="none" stroke-width="1" fill="none" fill-rule="evenodd" stroke-linejoin="round">
        <path d="M160,204.8 L192,230.4 L160,256 L128,230.4 L160,204.8 Z M224,204.8 L256,230.4 L224,256 L192,230.4 L224,204.8 Z M96,0 L128,25.6 L96.125,51.1 L128,76.6 L96.123,102.1 L128,127.6 L96.124,153.1 L128,178.6 L96.125,204.1 L128,229.6 L96,255.2 L64,229.6 L95.875,204.1 L64,178.6 L32.125,204.1 L64,229.6 L32,255.2 L0,229.6 L31.875,204.1 L0,178.6 L31.875,153.1 L3.19744231e-14,127.6 L31.876,102.1 L0,76.6 L31.874,51.1 L0,25.6 L32,0 L64,25.6 L96,0 Z M160,102.4 L192,128 L160.001,153.6 L192,179.2 L160,204.8 L128,179.2 L159.999,153.6 L128,128 L160,102.4 Z M224,102.4 L256,128 L224.001,153.6 L256,179.2 L224,204.8 L192,179.2 L223.999,153.6 L192,128 L224,102.4 Z M64,127.6 L32.125,153.1 L64,178.6 L95.874,153.1 L64,127.6 Z M64,76.6 L32.124,102.1 L64,127.6 L95.875,102.1 L64,76.6 Z M160,51.2 L192,76.8 L160,102.4 L128,76.8 L160,51.2 Z M224,51.2 L256,76.8 L224,102.4 L192,76.8 L224,51.2 Z M64,25.6 L32.126,51.1 L64,76.6 L95.873,51.1 L64,25.6 Z M160,0 L192,25.6 L160,51.2 L128,25.6 L160,0 Z M224,7.10542736e-15 L256,25.6 L224,51.2 L192,25.6 L224,7.10542736e-15 Z" id="Combined-Shape" stroke="#32C5FF" stroke-width="0.5"></path>
        <path d="M121.555414,32.1515554 L133.79178,42.0086277 C134.221874,42.3550922 134.289669,42.9846172 133.943204,43.4147111 C133.896684,43.4724602 133.843885,43.5248555 133.78578,43.5709307 L85.3695726,81.9619585 L185.391573,161.275959 L233.991089,122.738964 C234.35729,122.448578 234.875788,122.450569 235.239748,122.743759 L247.476114,132.600832 C247.906208,132.947296 247.974003,133.576821 247.627539,134.006915 C247.581018,134.064664 247.528219,134.117059 247.470115,134.163135 L135.39239,223.037267 C135.026189,223.327654 134.507691,223.325662 134.143731,223.032472 L121.907365,213.1754 C121.477271,212.828935 121.409476,212.19941 121.755941,211.769316 C121.802461,211.711567 121.85526,211.659172 121.913365,211.613097 L171.448573,172.332959 L71.4275726,93.0189585 L21.7080561,132.445063 C21.3418548,132.73545 20.8233569,132.733458 20.4593967,132.440268 L8.22303101,122.583196 C7.7929371,122.236731 7.7251421,121.607206 8.07160664,121.177113 C8.1181267,121.119363 8.170926,121.066968 8.22903063,121.020893 L120.306755,32.1467602 C120.672956,31.856374 121.191454,31.8583652 121.555414,32.1515554 Z" id="Combined-Shape" stroke="#222222" fill="#222222" transform="translate(127.8496, 127.592) scale(-1, 1) translate(-127.8496, -127.592)"></path>
    </g>
</svg>
